src/img/code_icon.svg

<svg xmlns="http://www.w3.org/2000/svg" viewBox="0 0 100 94"><defs><style>.cls-1,.cls-5{fill:none;}.cls-2{opacity:0.67;}.cls-2,.cls-4{isolation:isolate;}.cls-3{clip-path:url(#clip-path);}.cls-5{stroke:#fff;stroke-miterlimit:10;stroke-width:4px;}.cls-6{clip-path:url(#clip-path-4);}.cls-7{fill:#fff;}</style><clipPath id="clip-path"><path class="cls-1" d="M0 0h100v94H0z"/></clipPath><clipPath id="clip-path-4"><circle class="cls-1" cx="16" cy="80" r="4"/></clipPath></defs><g id="Слой_2" data-name="Слой 2"><g class="cls-2 cls-3 cls-4 cls-3" id="Слой_1-2" data-name="Слой 1"><g class="cls-3"><path class="cls-5" d="M38 88a3.9 3.9 0 0 1 3.78-4h28.44A3.9 3.9 0 0 1 74 88v4H38zM36 2h60a2 2 0 0 1 2 2v70a2 2 0 0 1-2 2H36"/><path class="cls-5" d="M36 10h52a2 2 0 0 1 2 2v48a2 2 0 0 1-2 2H36"/></g><path class="cls-6 cls-3 cls-7" d="M2 66h28v28H2z"/><g class="cls-3"><rect class="cls-5" x="2" y="2" width="28" height="90" rx="2" ry="2"/><path class="cls-5" d="M48 84v-8M64 84v-8"/></g></g></g></svg>

<svg xmlns="http://www.w3.org/2000/svg" xmlns:xlink="http://www.w3.org/1999/xlink" viewBox="0 0 100 94"><defs><clipPath id="a"><rect width="100" height="94" style="fill:none"/></clipPath></defs><title>code_icon</title><g style="clip-path:url(#a)"><g style="opacity:0.6700000166893005"><g style="clip-path:url(#a)"><path d="M38,88a3.9,3.9,0,0,1,3.78-4H70.22A3.9,3.9,0,0,1,74,88v4H38ZM36,2H96a2,2,0,0,1,2,2V74a2,2,0,0,1-2,2H36" style="fill:none;stroke:#fff;stroke-miterlimit:10;stroke-width:4px"/><path d="M36,10H88a2,2,0,0,1,2,2V60a2,2,0,0,1-2,2H36" style="fill:none;stroke:#fff;stroke-miterlimit:10;stroke-width:4px"/><rect x="2" y="2" width="28" height="90" rx="2" ry="2" style="fill:none;stroke:#fff;stroke-miterlimit:10;stroke-width:4px"/><path d="M48,84V76m16,8V76" style="fill:none;stroke:#fff;stroke-miterlimit:10;stroke-width:4px"/></g></g></g></svg>
